assets/Icons/stations01.svg

<svg width="40" height="40" viewBox="0 0 40 40" fill="none" xmlns="http://www.w3.org/2000/svg">
<path d="M19.9858 38.9923L19.9858 38.9924C19.989 38.9971 19.9942 39 20.0001 39C20.0059 39 20.0112 38.9971 20.0143 38.9924L20.0144 38.9923L21.881 36.163C21.881 36.163 21.881 36.1629 21.881 36.1629C21.9838 36.0072 24.532 32.1378 27.1288 27.4844L28.0021 27.9717L27.1288 27.4843C29.0184 24.0984 30.3874 21.2964 31.282 18.9855C32.181 16.6633 32.5753 14.9008 32.5753 13.5752C32.5753 6.6421 26.9332 1 20.0001 1C13.067 1 7.4248 6.6421 7.4248 13.5752C7.4248 14.9007 7.81916 16.6631 8.71812 18.9852C9.61275 21.2962 10.9818 24.0982 12.8713 27.4844C15.445 32.0961 18.0088 35.9953 18.1191 36.1628L19.9858 38.9923ZM19.9858 38.9923L18.1195 36.1634L19.9858 38.9923ZM27.099 27.4676L27.099 27.4676C28.8745 24.286 30.2257 21.5366 31.1356 19.2418C32.0366 16.9697 32.5411 15.0557 32.5411 13.5752C32.5411 6.6592 26.9161 1.03425 20.0001 1.03425C13.084 1.03425 7.45905 6.6592 7.45905 13.5752C7.45905 15.0556 7.96358 16.9695 8.86451 19.2416C9.77444 21.5364 11.1257 24.2859 12.9011 27.4676L12.9012 27.4677C15.4773 32.0837 18.0355 35.9736 18.1475 36.1436L18.1479 36.1442L19.1654 37.6865L20.0001 38.9518L20.8348 37.6866L21.8523 36.1443C21.9644 35.9744 24.5032 32.1189 27.099 27.4676Z" fill="#0B163F" stroke="#1334AB" stroke-width="2"/>
<path d="M20.0001 5.96368C15.8498 5.96368 12.4734 9.34021 12.4734 13.4904C12.4734 17.6406 15.8498 21.0171 20.0001 21.0171C24.1504 21.0171 27.5268 17.6406 27.5268 13.4904C27.5268 9.34021 24.1504 5.96368 20.0001 5.96368ZM20.0001 18.9829C16.9715 18.9829 14.5076 16.519 14.5076 13.4904C14.5076 10.4618 16.9715 7.99793 20.0001 7.99793C23.0288 7.99793 25.4926 10.4618 25.4926 13.4904C25.4926 16.519 23.0288 18.9829 20.0001 18.9829Z" fill="#1334AB"/>
</svg>

<?xml version="1.0" encoding="utf-8"?>
<!-- Generator: Adobe Illustrator 26.2.1, SVG Export Plug-In . SVG Version: 6.00 Build 0)  -->
<svg version="1.1" id="Layer_1" xmlns="http://www.w3.org/2000/svg" xmlns:xlink="http://www.w3.org/1999/xlink" x="0px" y="0px"
	 viewBox="0 0 40 40" style="enable-background:new 0 0 40 40;" xml:space="preserve">
<style type="text/css">
	.st0{fill:#FFFFFF;stroke:#1334AB;stroke-width:2;}
	.st1{fill:#1334AB;}
</style>
<path class="st0" d="M20,39L20,39C20,39,20,39,20,39C20,39,20,39,20,39L20,39l1.9-2.8v0c0.1-0.2,2.7-4,5.2-8.7L28,28l-0.9-0.5
	c1.9-3.4,3.3-6.2,4.2-8.5c0.9-2.3,1.3-4.1,1.3-5.4C32.6,6.6,26.9,1,20,1S7.4,6.6,7.4,13.6c0,1.3,0.4,3.1,1.3,5.4
	c0.9,2.3,2.3,5.1,4.2,8.5c2.6,4.6,5.1,8.5,5.2,8.7L20,39z M20,39l-1.9-2.8L20,39z M27.1,27.5L27.1,27.5c1.8-3.2,3.1-5.9,4-8.2
	c0.9-2.3,1.4-4.2,1.4-5.7C32.5,6.7,26.9,1,20,1C13.1,1,7.5,6.7,7.5,13.6c0,1.5,0.5,3.4,1.4,5.7c0.9,2.3,2.3,5,4,8.2l0,0
	c2.6,4.6,5.1,8.5,5.2,8.7l0,0l1,1.5L20,39l0.8-1.3l1-1.5C22,36,24.5,32.1,27.1,27.5z"/>
<path class="st1" d="M20,6c-4.2,0-7.5,3.4-7.5,7.5c0,4.2,3.4,7.5,7.5,7.5s7.5-3.4,7.5-7.5C27.5,9.3,24.2,6,20,6z M20,19
	c-3,0-5.5-2.5-5.5-5.5S17,8,20,8c3,0,5.5,2.5,5.5,5.5S23,19,20,19z"/>
</svg>
